**harm	**harte	**timestamp	**phrase	**leadinstrument	**kern
*M4/4	*M4/4	*	*	*	*
*E:	*E:	*	*	*	*E:
1r;	N	0	.	r	1r;
=1	=1	=1	=1	=1	=1
*>A_intro	*>A_intro	*>A_intro	*>A_intro	*>A_intro	*>A_intro
2I	E:maj	1.608	newline	r	2E 2g# 2b
2iii	G#:min	3.711	.	r	2G# 2b 2dd#
=2	=2	=2	=2	=2	=2
4ii7	F#:min7	5.813	.	r	4F# 4a 4cc# 4ee
4IV	A:maj	6.865	.	r	4A 4cc# 4ee
2I	E:maj	7.916	.	r	2E 2g# 2b
=3	=3	=3	=3	=3	=3
2I	E:maj	10.018	newline	r	2E 2g# 2b
4V	B:sus4(b7,9)	12.065	.	r	4B 4dd# 4ff#
4V	B:maj	13.088	.	r	4B 4dd# 4ff#
=4	=4	=4	=4	=4	=4
1IVc	A:maj/5	14.111	.	r	1a 1cc# 1E
=5	=5	=5	=5	=5	=5
1I	E:maj	18.204	newline	r	1E 1g# 1b
=6	=6	=6	=6	=6	=6
1I	E:maj	19.877	.	r	1E 1g# 1b
=7	=7	=7	=7	=7	=7
*>B_verse	*>B_verse	*>B_verse	*>B_verse	*>B_verse	*>B_verse
1I	E:maj	21.549	newline	voice	1E 1g# 1b
=8	=8	=8	=8	=8	=8
1iii7	G#:min7	23.19	.	voice	1G# 1b 1dd# 1ff#
=9	=9	=9	=9	=9	=9
2ii7	F#:min7	24.831	.	voice	2F# 2a 2cc# 2ee
2IV	A:maj	25.652	.	voice	2A 2cc# 2ee
=10	=10	=10	=10	=10	=10
1I	E:maj	26.472	.	voice	1E 1g# 1b
=11	=11	=11	=11	=11	=11
1I	E:maj	28.114	newline	voice	1E 1g# 1b
=12	=12	=12	=12	=12	=12
1ii7	F#:min7	29.754	.	voice	1F# 1a 1cc# 1ee
=13	=13	=13	=13	=13	=13
1iii7	G#:min7	31.395	.	voice	1G# 1b 1dd# 1ff#
=14	=14	=14	=14	=14	=14
1V7	B:7	33.035	.	voice	1B 1dd# 1ff# 1aa
=15	=15	=15	=15	=15	=15
1vi	C#:min	34.676	newline	voice	1C# 1e 1g#
=16	=16	=16	=16	=16	=16
1iii7	G#:min7	36.318	.	voice	1G# 1b 1dd# 1ff#
=17	=17	=17	=17	=17	=17
2ii	F#:sus4	37.961	.	voice	2F# 2a 2cc#
2IV	A:maj	38.782	.	voice	2A 2cc# 2ee
=18	=18	=18	=18	=18	=18
1iii7	G#:min7	39.604	.	voice	1G# 1b 1dd# 1ff#
=19	=19	=19	=19	=19	=19
1ii	F#:min	41.246	newline	voice	1F# 1a 1cc#
=20	=20	=20	=20	=20	=20
1V	B:maj	42.876	.	voice	1B 1dd# 1ff#
=21	=21	=21	=21	=21	=21
1I	E:maj	44.506	.	voice	1E 1g# 1b
=22	=22	=22	=22	=22	=22
1I	E:maj	46.136	.	voice	1E 1g# 1b
=23	=23	=23	=23	=23	=23
*>A2_trans	*>A2_trans	*>A2_trans	*>A2_trans	*>A2_trans	*>A2_trans
1I	E:maj	47.766	newline	voice	1E 1g# 1b
=24	=24	=24	=24	=24	=24
1V7	B:9	49.423	.	voice	1B 1dd# 1ff# 1aa
=25	=25	=25	=25	=25	=25
1IV	A:maj	51.08	.	voice	1A 1cc# 1ee
=26	=26	=26	=26	=26	=26
1I	E:maj	52.738	.	voice	1E 1g# 1b
=27	=27	=27	=27	=27	=27
*>B_verse	*>B_verse	*>B_verse	*>B_verse	*>B_verse	*>B_verse
1I	E:maj	54.395	newline	voice	1E 1g# 1b
=28	=28	=28	=28	=28	=28
1iii7	G#:min7	56.033	.	voice	1G# 1b 1dd# 1ff#
=29	=29	=29	=29	=29	=29
2ii7	F#:min7	57.671	.	voice	2F# 2a 2cc# 2ee
2IV	A:maj	58.49	.	voice	2A 2cc# 2ee
=30	=30	=30	=30	=30	=30
1I	E:maj	59.309	.	voice	1E 1g# 1b
=31	=31	=31	=31	=31	=31
1I	E:maj	60.947	newline	voice	1E 1g# 1b
=32	=32	=32	=32	=32	=32
1ii7	F#:min7	62.583	.	voice	1F# 1a 1cc# 1ee
=33	=33	=33	=33	=33	=33
1iii7	G#:min7	64.219	.	voice	1G# 1b 1dd# 1ff#
=34	=34	=34	=34	=34	=34
1V7	B:7	65.854	.	voice	1B 1dd# 1ff# 1aa
=35	=35	=35	=35	=35	=35
1vi	C#:min	67.49	newline	voice	1C# 1e 1g#
=36	=36	=36	=36	=36	=36
1iii7	G#:min7	69.122	.	voice	1G# 1b 1dd# 1ff#
=37	=37	=37	=37	=37	=37
2ii	F#:sus4	70.753	.	voice	2F# 2a 2cc#
2IV	A:maj	71.569	.	voice	2A 2cc# 2ee
=38	=38	=38	=38	=38	=38
1iii7	G#:min7	72.385	.	voice	1G# 1b 1dd# 1ff#
=39	=39	=39	=39	=39	=39
1ii	F#:min	74.017	newline	voice	1F# 1a 1cc#
=40	=40	=40	=40	=40	=40
1V	B:maj	75.654	.	voice	1B 1dd# 1ff#
=41	=41	=41	=41	=41	=41
1IV	A:maj	77.29	.	voice	1A 1cc# 1ee
=42	=42	=42	=42	=42	=42
1IV	A:maj	78.927	.	voice	1A 1cc# 1ee
=43	=43	=43	=43	=43	=43
*>C_solo	*>C_solo	*>C_solo	*>C_solo	*>C_solo	*>C_solo
1I	E:maj	80.564	newline	organ	1E 1g# 1b
=44	=44	=44	=44	=44	=44
1I	E:maj	82.24	.	organ	1E 1g# 1b
=45	=45	=45	=45	=45	=45
1I	E:maj	83.916	.	organ	1E 1g# 1b
=46	=46	=46	=46	=46	=46
1I	E:maj	85.592	.	organ	1E 1g# 1b
=47	=47	=47	=47	=47	=47
1I	E:maj	87.268	newline	organ	1E 1g# 1b
=48	=48	=48	=48	=48	=48
1I	E:maj	88.912	.	organ	1E 1g# 1b
=49	=49	=49	=49	=49	=49
1IV	A:maj	90.557	.	organ	1A 1cc# 1ee
=50	=50	=50	=50	=50	=50
1IV	A:maj	92.201	.	organ	1A 1cc# 1ee
=51	=51	=51	=51	=51	=51
1I	E:maj	93.845	newline	organ	1E 1g# 1b
=52	=52	=52	=52	=52	=52
1I	E:maj	95.528	.	organ	1E 1g# 1b
=53	=53	=53	=53	=53	=53
*>B_verse	*>B_verse	*>B_verse	*>B_verse	*>B_verse	*>B_verse
1I	E:maj	97.211	newline	voice	1E 1g# 1b
=54	=54	=54	=54	=54	=54
1iii7	G#:min7	98.832	.	voice	1G# 1b 1dd# 1ff#
=55	=55	=55	=55	=55	=55
2ii7	F#:min7	100.452	.	voice	2F# 2a 2cc# 2ee
2IV	A:maj	101.263	.	voice	2A 2cc# 2ee
=56	=56	=56	=56	=56	=56
1I	E:maj	102.073	.	voice	1E 1g# 1b
=57	=57	=57	=57	=57	=57
1I	E:maj	103.693	newline	voice	1E 1g# 1b
=58	=58	=58	=58	=58	=58
1ii7	F#:min7	105.321	.	voice	1F# 1a 1cc# 1ee
=59	=59	=59	=59	=59	=59
1iii7	G#:min7	106.949	.	voice	1G# 1b 1dd# 1ff#
=60	=60	=60	=60	=60	=60
1V7	B:7	108.577	.	voice	1B 1dd# 1ff# 1aa
=61	=61	=61	=61	=61	=61
1vi	C#:min	110.205	newline	voice	1C# 1e 1g#
=62	=62	=62	=62	=62	=62
1iii7	G#:min7	111.826	.	voice	1G# 1b 1dd# 1ff#
=63	=63	=63	=63	=63	=63
2ii	F#:sus4	113.448	.	voice	2F# 2a 2cc#
2IV	A:maj	114.259	.	voice	2A 2cc# 2ee
=64	=64	=64	=64	=64	=64
1iii7	G#:min7	115.07	.	voice	1G# 1b 1dd# 1ff#
=65	=65	=65	=65	=65	=65
1ii	F#:min	116.691	newline	voice	1F# 1a 1cc#
=66	=66	=66	=66	=66	=66
1V	B:maj	118.298	.	voice	1B 1dd# 1ff#
=67	=67	=67	=67	=67	=67
1IV	A:maj	119.905	.	voice	1A 1cc# 1ee
=68	=68	=68	=68	=68	=68
1I	E:maj	121.512	.	voice	1E 1g# 1b
=69	=69	=69	=69	=69	=69
*>D_bridge	*>D_bridge	*>D_bridge	*>D_bridge	*>D_bridge	*>D_bridge
1IV	A:maj	123.119	newline	voice	1A 1cc# 1ee
=70	=70	=70	=70	=70	=70
1iii7	G#:min7	124.74	.	voice	1G# 1b 1dd# 1ff#
=71	=71	=71	=71	=71	=71
2ii	F#:sus4	126.362	.	voice	2F# 2a 2cc#
2IV	A:maj	127.172	.	voice	2A 2cc# 2ee
=72	=72	=72	=72	=72	=72
1iii7	G#:min7	127.983	.	voice	1G# 1b 1dd# 1ff#
=73	=73	=73	=73	=73	=73
1IV	A:maj	129.605	newline	voice	1A 1cc# 1ee
=74	=74	=74	=74	=74	=74
1iii7	G#:min7	131.223	.	voice	1G# 1b 1dd# 1ff#
=75	=75	=75	=75	=75	=75
2ii	F#:sus4	132.842	.	voice	2F# 2a 2cc#
2IV	A:maj	133.651	.	voice	2A 2cc# 2ee
=76	=76	=76	=76	=76	=76
2ii	F#:sus4	134.461	.	voice	2F# 2a 2cc#
2IV	A:maj	135.27	.	voice	2A 2cc# 2ee
=77	=77	=77	=77	=77	=77
1I	E:maj	136.079	newline	voice	1E 1g# 1b
=78	=78	=78	=78	=78	=78
1I	E:maj	137.688	.	voice	1E 1g# 1b
=79	=79	=79	=79	=79	=79
1v7	B:min7	139.296	.	voice	1B 1dd 1ff# 1aa
=80	=80	=80	=80	=80	=80
1-VII	D:maj	140.905	.	voice	1D 1f# 1a
=81	=81	=81	=81	=81	=81
1IV	A:maj	142.513	newline	voice	1A 1cc# 1ee
=82	=82	=82	=82	=82	=82
1iii7	G#:min7	144.123	.	voice	1G# 1b 1dd# 1ff#
=83	=83	=83	=83	=83	=83
1ii	F#:sus4(b7,9)	145.733	.	voice	1F# 1a 1cc#
=84	=84	=84	=84	=84	=84
2V	B:sus4	147.343	.	voice	2B 2dd# 2ff#
2V	B:maj	148.147	.	voice	2B 2dd# 2ff#
=85	=85	=85	=85	=85	=85
*>B_verse	*>B_verse	*>B_verse	*>B_verse	*>B_verse	*>B_verse
1I	E:maj	148.952	newline	voice	1E 1g# 1b
=86	=86	=86	=86	=86	=86
1iii7	G#:min7	150.588	.	voice	1G# 1b 1dd# 1ff#
=87	=87	=87	=87	=87	=87
2ii7	F#:min7	152.223	.	voice	2F# 2a 2cc# 2ee
2IV	A:maj	153.041	.	voice	2A 2cc# 2ee
=88	=88	=88	=88	=88	=88
1I	E:maj	153.859	.	voice	1E 1g# 1b
=89	=89	=89	=89	=89	=89
1I	E:maj	155.494	newline	voice	1E 1g# 1b
=90	=90	=90	=90	=90	=90
1ii7	F#:min7	157.089	.	voice	1F# 1a 1cc# 1ee
=91	=91	=91	=91	=91	=91
1iii7	G#:min7	158.684	.	voice	1G# 1b 1dd# 1ff#
=92	=92	=92	=92	=92	=92
1V7	B:7	160.279	.	voice	1B 1dd# 1ff# 1aa
=93	=93	=93	=93	=93	=93
1vi	C#:min	161.874	newline	voice	1C# 1e 1g#
=94	=94	=94	=94	=94	=94
1iii7	G#:min7	163.5	.	voice	1G# 1b 1dd# 1ff#
=95	=95	=95	=95	=95	=95
2ii	F#:sus4	165.126	.	voice	2F# 2a 2cc#
2IV	A:maj	165.939	.	voice	2A 2cc# 2ee
=96	=96	=96	=96	=96	=96
1iii7	G#:min7	166.752	.	voice	1G# 1b 1dd# 1ff#
=97	=97	=97	=97	=97	=97
1ii	F#:min	168.377	newline	voice	1F# 1a 1cc#
=98	=98	=98	=98	=98	=98
1V	B:maj	169.983	.	voice	1B 1dd# 1ff#
=99	=99	=99	=99	=99	=99
1vi	C#:min	171.589	.	voice	1C# 1e 1g#
=100	=100	=100	=100	=100	=100
1IV	A:maj	173.195	.	voice	1A 1cc# 1ee
=101	=101	=101	=101	=101	=101
1IV	A:maj	174.801	newline	voice	1A 1cc# 1ee
=102	=102	=102	=102	=102	=102
1I	E:maj	175.622	.	voice	1E 1g# 1b
=103	=103	=103	=103	=103	=103
1I	E:maj	176.443	.	voice	1E 1g# 1b
=104	=104	=104	=104	=104	=104
1I	E:maj	177.264	.	voice	1E 1g# 1b
=105	=105	=105	=105	=105	=105
*>A2_outro_fadeout	*>A2_outro_fadeout	*>A2_outro_fadeout	*>A2_outro_fadeout	*>A2_outro_fadeout	*>A2_outro_fadeout
1I	E:maj	178.085	newline	voice	1E 1g# 1b
=106	=106	=106	=106	=106	=106
1I	E:maj	179.717	.	voice	1E 1g# 1b
=107	=107	=107	=107	=107	=107
1I	E:maj	181.349	.	voice	1E 1g# 1b
=108	=108	=108	=108	=108	=108
1I	E:maj	182.98	.	voice	1E 1g# 1b
=109	=109	=109	=109	=109	=109
1I	E:maj	184.612	newline	voice	1E 1g# 1b
=110	=110	=110	=110	=110	=110
1I	E:maj	186.237	.	voice	1E 1g# 1b
=111	=111	=111	=111	=111	=111
1I	E:maj	187.863	.	voice	1E 1g# 1b
=112	=112	=112	=112	=112	=112
1I	E:maj	189.489	.	voice	1E 1g# 1b
=113	=113	=113	=113	=113	=113
1I	E:maj	191.114	newline	voice	1E 1g# 1b
=114	=114	=114	=114	=114	=114
1I	E:maj	192.732	.	voice	1E 1g# 1b
1r;	N	196.371	.	r	1r;
1r;	N	199.863	.	r	1r;
*-	*-	*-	*-	*-	*-
!!!OTL: Abraham, Martin And John
!!!COC: Dion
!!!BillboardChartDate: 1968/11/16
!!!BillboardPeak: 4
!!!BillboardWeeksOnChart: 14
!!!SampleTargetRank: 10
!!!SampleActualRank: 9
!!!SampleID#: 1146
!!!RDF**harmony: **recip + pitch class of root + harmonic quality
!!!RDF**harte: Chris Harte's syntax, used by MIREX
!!!RDF**phrase: newline = linebreak in original McGill transcription
!!!RDF**timestamp: McGill audio timestamp in seconds
!!!RDF**leadinstrument: original McGill primary instrumentation annotation
!!!RDT: 2017/01/12/
!!!ENC: Nathaniel Condit-Schultz
!!!EST: Awating manual error checking and editing.
